X:896
T:Bonanza Two Step, The
C:Joe Buchanan's Scottish Tome - Page 468.0
I:468 0
R:Two-step
Z:Carl Allison
L:1/8
M:6/8
K:G
D | "G"B,C^C "D"DEF | "G"GA^A "D"B2 c | "G"d^cd "G#dim"edB | "A/A7"c6 |
"Am7"CDF "D7"F^EF | "A"A^GA "D7"c2 d | "A"fed "D7"cBA | "G"B3- "D"B2 D |
"G"B,C^C "D"DEF | "G"GA^A "D"B2 c | "G"d^cd "G7"gf=f | "C"e3- "E c"e2 e |
"C"e^de "C#dim"gfe | "D"dge "G"d2 d | "Am"fed "D7"cBA | "G"G- G z z :|
B | "Am"ABc "D7"B2 A | "G"G2 B "D"D2 B | "Am"ABc "D"B2 A | "G"GBd "D"gdB |
"Am7"ABc "D7"B2 A | "G"GAB "D7"dBd | "A7"ABA "G#7"AB^c | "D7"d3 d2 |
"Am7"ABc "D7"B2 A | "F"GAB "D g"dBd | "Am7"ABc "D7"B2 A | "C"G2 E "D7"D2 C |
"G"B,C^C "D g"DEF | "G"GA^A "D"B2 d | "Am"fed "D7"cBA | "G"G3- G :|
